packages/crayons-icon/icons/download.svg

<?xml version="1.0" encoding="UTF-8"?>
<svg width="14px" height="14px" viewBox="0 0 14 14" version="1.1" xmlns="http://www.w3.org/2000/svg" xmlns:xlink="http://www.w3.org/1999/xlink">
    <!-- Generator: Sketch 52.6 (67491) - http://www.bohemiancoding.com/sketch -->
    <title>icon/download</title>
    <desc>Created with Sketch.</desc>
    <g id="Icons-✅" stroke="none" stroke-width="1" fill="none" fill-rule="evenodd">
        <g id="Icons" transform="translate(-163.000000, -2257.000000)" fill="currentColor">
            <g id="icon/download" transform="translate(163.000000, 2257.000000)">
                <g id="download">
                    <path d="M13.3,8.54 C13.6865993,8.54 14,8.85340068 14,9.24 L14,11.6 C13.9945208,12.9232072 12.9232072,13.9945208 11.6,14 L2.4,14 C1.0767928,13.9945208 0.0054791892,12.9232072 8.8817842e-16,11.6 L8.8817842e-16,9.24 C-3.72656961e-09,8.98991408 0.133419242,8.75882517 0.349999997,8.63378221 C0.566580752,8.50873925 0.833419248,8.50873925 1.05,8.63378221 C1.26658076,8.75882517 1.4,8.98991408 1.4,9.24 L1.4,11.6 C1.4,12.1522847 1.84771525,12.6 2.4,12.6 L11.6,12.6 C12.1522847,12.6 12.6,12.1522847 12.6,11.6 L12.6,9.24 C12.6,8.85340068 12.9134007,8.54 13.3,8.54 Z M6.5,10.34 L2.53,6.38 C2.39303562,6.24974694 2.31549974,6.06901085 2.31549974,5.88 C2.31549974,5.69098915 2.39303562,5.51025306 2.53,5.38 C2.80679776,5.10544444 3.25320224,5.10544444 3.53,5.38 L6.3,8.16 L6.3,0.7 C6.3,0.313400675 6.61340068,-1.95399252e-14 7,-1.95399252e-14 C7.38659932,-1.95399252e-14 7.7,0.313400675 7.7,0.7 L7.7,8.16 L10.5,5.34 C10.7767978,5.06544444 11.2232022,5.06544444 11.5,5.34 C11.6369644,5.47025306 11.7145003,5.65098915 11.7145003,5.84 C11.7145003,6.02901085 11.6369644,6.20974694 11.5,6.34 L7.5,10.34 C7.43488976,10.4058081 7.35647359,10.4569491 7.27,10.49 C7.09881244,10.5696552 6.90118756,10.5696552 6.73,10.49 C6.64352641,10.4569491 6.56511024,10.4058081 6.5,10.34 Z" id="Combined-Shape"></path>
                </g>
            </g>
        </g>
    </g>
</svg>

<svg viewBox="0 0 14 14"><path d="M13.3 8.54a.7.7 0 0 1 .7.7v2.36a2.41 2.41 0 0 1-2.4 2.4H2.4A2.41 2.41 0 0 1 0 11.6V9.24a.7.7 0 1 1 1.4 0v2.36a1 1 0 0 0 1 1h9.2a1 1 0 0 0 1-1V9.24a.7.7 0 0 1 .7-.7zm-6.8 1.8L2.53 6.38a.69.69 0 0 1 0-1 .71.71 0 0 1 1 0L6.3 8.16V.7a.7.7 0 0 1 1.4 0v7.46l2.8-2.82a.71.71 0 0 1 1 0 .69.69 0 0 1 0 1l-4 4a.65.65 0 0 1-.23.15.64.64 0 0 1-.54 0 .65.65 0 0 1-.23-.15z" fill="currentColor" fill-rule="evenodd"/></svg>
